icon/mi/square-stroked.svg

<?xml version="1.0" encoding="UTF-8"?>
<svg viewBox="0 0 15 15" xmlns="http://www.w3.org/2000/svg" id="square-stroked" height="1em" width="1em">
  <path d="M11.7 3.3V11.7H3.3V3.3H11.7ZM12 2H3C2.4477 2 2 2.4477 2 3V12C2 12.5523 2.4477 13 3 13H12C12.5523 13 13 12.5523 13 12V3C13 2.4477 12.5523 2 12 2Z"/>
</svg>

<svg width="15" height="15" xmlns="http://www.w3.org/2000/svg"><path d="M11.7 3.3v8.4H3.3V3.3h8.4ZM12 2H3a1 1 0 0 0-1 1v9a1 1 0 0 0 1 1h9a1 1 0 0 0 1-1V3a1 1 0 0 0-1-1Z"/></svg>
